packages/kaspersky-hexa-ui-icons/src/iconsSVGs/16/ShareLink.svg

<svg width="16" height="16" viewBox="0 0 16 16" fill="none" xmlns="http://www.w3.org/2000/svg">
<path fill-rule="evenodd" clip-rule="evenodd" d="M11.3566 0.889404C10.0679 0.889404 9.02319 1.93412 9.02319 3.22284C9.02319 3.42175 9.04808 3.61484 9.09491 3.79918L5.1748 6.20946C4.76047 5.83312 4.21021 5.60376 3.60638 5.60376C2.31766 5.60376 1.27295 6.64847 1.27295 7.93719C1.27295 9.22591 2.31766 10.2706 3.60638 10.2706C4.18621 10.2706 4.71664 10.0591 5.12475 9.7091L9.10649 12.1573C9.05219 12.3547 9.02319 12.5627 9.02319 12.7774C9.02319 14.0661 10.0679 15.1108 11.3566 15.1108C12.6453 15.1108 13.6901 14.0661 13.6901 12.7774C13.6901 11.4887 12.6453 10.4439 11.3566 10.4439C10.7526 10.4439 10.2021 10.6735 9.78774 11.0501L5.83787 8.62149C5.90415 8.40509 5.93981 8.1753 5.93981 7.93719C5.93981 7.72226 5.91075 7.51412 5.85635 7.31648L9.75474 4.91956C10.1727 5.31428 10.7364 5.55627 11.3566 5.55627C12.6453 5.55627 13.6901 4.51155 13.6901 3.22284C13.6901 1.93412 12.6453 0.889404 11.3566 0.889404ZM10.3232 3.22284C10.3232 2.65209 10.7859 2.1894 11.3566 2.1894C11.9274 2.1894 12.3901 2.65209 12.3901 3.22284C12.3901 3.79358 11.9274 4.25627 11.3566 4.25627C10.7859 4.25627 10.3232 3.79358 10.3232 3.22284ZM11.3566 11.7439C10.7859 11.7439 10.3232 12.2066 10.3232 12.7774C10.3232 13.3481 10.7859 13.8108 11.3566 13.8108C11.9274 13.8108 12.3901 13.3481 12.3901 12.7774C12.3901 12.2066 11.9274 11.7439 11.3566 11.7439ZM2.57295 7.93719C2.57295 7.36644 3.03563 6.90376 3.60638 6.90376C4.17713 6.90376 4.63981 7.36644 4.63981 7.93719C4.63981 8.50794 4.17713 8.97062 3.60638 8.97062C3.03563 8.97062 2.57295 8.50794 2.57295 7.93719Z" fill="black"/>
</svg>

<svg xmlns="http://www.w3.org/2000/svg" width="16" height="16" fill="none" viewBox="0 0 16 16"><path fill="#000" fill-rule="evenodd" d="M11.3567.8894c-1.2887 0-2.3334 1.0447-2.3334 2.3334 0 .199.0248.392.0717.5764L5.1749 6.2095a2.325 2.325 0 0 0-1.5685-.6057c-1.2887 0-2.3334 1.0447-2.3334 2.3334s1.0447 2.3334 2.3334 2.3334a2.325 2.325 0 0 0 1.5184-.5615l3.9818 2.4482a2.34 2.34 0 0 0-.0833.6201c0 1.2887 1.0447 2.3334 2.3334 2.3334s2.3334-1.0447 2.3334-2.3334-1.0447-2.3335-2.3334-2.3335a2.325 2.325 0 0 0-1.5689.6062L5.8379 8.6215a2.33 2.33 0 0 0 .102-.6843c0-.215-.029-.423-.0835-.6207l3.8984-2.397a2.325 2.325 0 0 0 1.6019.6368c1.2887 0 2.3334-1.0448 2.3334-2.3335S12.6454.8894 11.3567.8894m-1.0334 2.3334c0-.5707.4626-1.0334 1.0334-1.0334.5707 0 1.0334.4627 1.0334 1.0334s-.4627 1.0335-1.0334 1.0335-1.0334-.4627-1.0334-1.0335m1.0334 8.5211c-.5708 0-1.0334.4627-1.0334 1.0335 0 .5707.4626 1.0334 1.0334 1.0334.5707 0 1.0334-.4627 1.0334-1.0334s-.4627-1.0335-1.0334-1.0335M2.573 7.9372c0-.5708.4627-1.0334 1.0334-1.0334S4.64 7.3664 4.64 7.9372c0 .5707-.4627 1.0334-1.0335 1.0334-.5707 0-1.0334-.4627-1.0334-1.0334"/></svg>
